Role: CNC Machine Tool Expert
Instruction: Imagine four different experts are analysing this g code, all experts, all experts will write down their own explanation about operation type and geometric description of the corresponding operation, then share it with the group. If any expert realises, they're wrong at any point, then they leave. At the end of this discussion , give the summary of geometric description and operation type via adding experts conflicts.
Input:
 "
N1 G290
N2 G710
N3 SOFT
N4 STOPRE
N5 FGROUP(X,Y,Z,B,C)
N6 NEWCONF
N7 G642
N8 $MA_COMPRESS_POS_TOL[X] = 0.01
N9 $MA_COMPRESS_POS_TOL[Y] = 0.01
N10 $MA_COMPRESS_POS_TOL[Z] = 0.01
N11 $MA_COMPRESS_POS_TOL[B] = 0.01
N12 $MA_COMPRESS_POS_TOL[C] = 0.01
N13 G40 G17 G94 G90 FNORM
N14 CYCLE800()
N15 TRAFOOF
N16 TRANS
N17 SUPA G0 Z605. D0
N18 SUPA X-360. Y223.9
N19 T1
N20 M6
N21 T1
N22 D1
N23 G54
N24 SUPA G0 Z605. D0
N25 M47
N26 M57
N27 G94 S600 M3
N28 M8
N29 G17 X-46.138 Y23.724 B0. C=DC(0.) D1
N30 Z5.
N31 M56
N32 M46
N33 Z1.5
N34 G1 G90 X-21.138 F180.
N35 X21.137
N36 X28.827
N37 G2 X36.108 Y16.442 I0. J-7.281
N38 X28.827 Y9.161 I-7.281 J0.
N39 G1 X-28.825
N40 G3 X-29.32 Y9.174 I-0.495 J-9.167
N41 X-31.206 Y8.978 I0. J-9.181
N42 X-36.867 Y1.88 I1.62 J-7.099
N43 X-29.586 Y-5.402 I7.281 J0.
N44 G1 X29.587
N45 G2 X36.869 Y-12.683 I0. J-7.281
N46 X29.587 Y-19.964 I-7.281 J0.
N47 G1 X23.986
N48 X-24.004
N49 X-49.004
N50 G0 Z5.
N51 X-46.138 Y23.724
N52 Z1.
N53 G1 X-21.138
N54 X21.137
N55 X28.827
N56 G2 X36.108 Y16.442 I0. J-7.281
N57 X28.827 Y9.161 I-7.281 J0.
N58 G1 X-28.825
N59 G3 X-29.32 Y9.174 I-0.495 J-9.167
N60 X-31.206 Y8.978 I0. J-9.181
N61 X-36.867 Y1.88 I1.62 J-7.099
N62 X-29.586 Y-5.402 I7.281 J0.
N63 G1 X29.587
N64 G2 X36.869 Y-12.683 I0. J-7.281
N65 X29.587 Y-19.964 I-7.281 J0.
N66 G1 X23.986
N67 X-24.004
N68 X-49.004
N69 G0 Z5.
N70 X-46.138 Y23.724
N71 Z0.5
N72 G1 X-21.138
N73 X21.137
N74 X28.827
N75 G2 X36.108 Y16.442 I0. J-7.281
N76 X28.827 Y9.161 I-7.281 J0.
N77 G1 X-28.825
N78 G3 X-29.32 Y9.174 I-0.495 J-9.167
N79 X-31.206 Y8.978 I0. J-9.181
N80 X-36.867 Y1.88 I1.62 J-7.099
N81 X-29.586 Y-5.402 I7.281 J0.
N82 G1 X29.587
N83 G2 X36.869 Y-12.683 I0. J-7.281
N84 X29.587 Y-19.964 I-7.281 J0.
N85 G1 X23.986
N86 X-24.004
N87 X-49.004
N88 G0 Z5.
N89 X-46.138 Y23.724
N90 Z0.
N91 G1 X-21.138
N92 X21.137
N93 X28.827
N94 G2 X36.108 Y16.442 I0. J-7.281
N95 X28.827 Y9.161 I-7.281 J0.
N96 G1 X-28.825
N97 G3 X-29.32 Y9.174 I-0.495 J-9.167
N98 X-31.206 Y8.978 I0. J-9.181
N99 X-36.867 Y1.88 I1.62 J-7.099
N100 X-29.586 Y-5.402 I7.281 J0.
N101 G1 X29.587
N102 G2 X36.869 Y-12.683 I0. J-7.281
N103 X29.587 Y-19.964 I-7.281 J0.
N104 G1 X23.986
N105 X-24.004
N106 X-49.004
N107 G0 Z5.
N108 M9
N109 M5
N110 SUPA G0 Z605. D0
N111 SUPA X-360. Y223.9
N112 ;End of Program
N113 M30
"
Explanation: <Area for LLM output>
